assets/img/img-pages/icon-property/wink1.svg

<svg width="65" height="64" viewBox="0 0 65 64" fill="none" xmlns="http://www.w3.org/2000/svg">
<path d="M31.9328 60.9988C31.4043 60.9988 30.9602 61.4164 30.9431 61.9446C30.9258 62.4782 31.3443 62.9313 31.8782 62.9322C31.9135 62.9323 31.9487 62.9323 31.9839 62.9322C32.5178 62.9313 32.9362 62.4784 32.9189 61.9448C32.9018 61.4165 32.4613 60.9988 31.9328 60.9988Z" fill="#14213D"/>
<path d="M13.4194 12.305C13.0296 12.6699 13.0363 13.2825 13.4178 13.6561L13.4421 13.6799C13.8101 14.0403 14.4307 14.0041 14.808 13.6534C15.1853 13.3027 15.1911 12.7436 14.8494 12.3582L14.8268 12.3327C14.4726 11.9332 13.8599 11.8945 13.4692 12.2584C13.4527 12.2738 13.4361 12.2894 13.4194 12.305Z" fill="#14213D"/>
<path d="M17.9208 10.0194C17.6338 9.56911 17.0353 9.43557 16.5958 9.73877C16.5748 9.75322 16.5539 9.76768 16.5331 9.78216C16.0944 10.0866 16.0103 10.6938 16.332 11.1199L16.3551 11.1505C16.664 11.5598 17.2337 11.6488 17.6552 11.3569C18.0767 11.0649 18.2171 10.4841 17.9414 10.0517L17.9208 10.0194Z" fill="#14213D"/>
<path d="M20.3317 33.2166C23.1351 33.2166 25.4153 30.9363 25.4153 28.1329C25.4153 25.3295 23.1351 23.0493 20.3317 23.0493C17.5283 23.0493 15.248 25.3295 15.248 28.1329C15.248 30.9363 17.5283 33.2166 20.3317 33.2166ZM20.3317 25.4828C21.7927 25.4828 22.9819 26.6718 22.9819 28.1329C22.9819 29.5941 21.7927 30.7831 20.3317 30.7831C18.8706 30.7831 17.6815 29.5941 17.6815 28.1329C17.6815 26.6718 18.8705 25.4828 20.3317 25.4828Z" fill="#14213D" stroke="#14213D" stroke-width="0.5"/>
<path d="M37.9098 39.3443C38.385 38.8691 38.385 38.0987 37.9098 37.6235C37.4347 37.1484 36.6642 37.1484 36.1891 37.6235L31.9328 41.88L27.6763 37.6235C27.2011 37.1483 26.4307 37.1483 25.9556 37.6235C25.4804 38.0987 25.4804 38.8691 25.9556 39.3443L31.6209 45.0095C31.7931 45.1817 32.0724 45.1817 32.2446 45.0095L37.9098 39.3443Z" fill="#14213D" stroke="#14213D" stroke-width="0.5"/>
<path d="M43.5333 27.4164C44.6902 27.4164 45.6776 28.1621 46.0379 29.1995C46.2311 29.7559 46.7163 30.3165 47.4002 30.3165C48.0549 30.3165 48.6604 29.7691 48.5162 29.0564C48.0464 26.7356 45.9914 24.9829 43.5333 24.9829C41.0753 24.9829 39.0203 26.7356 38.5505 29.0564C38.4063 29.7691 39.0118 30.3165 39.6664 30.3165C40.3504 30.3165 40.8356 29.7559 41.0288 29.1995C41.389 28.1622 42.3763 27.4164 43.5333 27.4164Z" fill="#14213D" stroke="#14213D" stroke-width="0.5"/>
<path d="M8.86731 52.9847L9.05219 52.8164L8.86732 52.9847C13.8461 58.454 20.5484 61.9565 27.8288 62.9146C28.5032 63.0034 29.1003 62.5074 29.1668 61.8407C29.2338 61.1696 28.7425 60.5816 28.0853 60.4943C13.822 58.5985 3.18345 46.5146 3.18345 31.9999C3.18345 16.1479 16.0804 3.25096 31.9325 3.25096C47.169 3.25096 59.6745 15.166 60.6227 30.1674L59.6109 29.5865L57.3123 25.5828C56.832 24.7461 55.6252 24.7459 55.1445 25.5823L52.8442 29.5852L48.8412 31.8856C48.0052 32.366 48.0049 33.5721 48.8408 34.0529L52.8426 36.3549L55.1447 40.3569C55.6255 41.1927 56.8316 41.1925 57.312 40.3564L59.6123 36.3535L60.4169 35.8912C58.6794 48.5528 48.4972 58.8013 35.7425 60.4987C35.0853 60.5862 34.5941 61.1734 34.6603 61.8446C34.7261 62.5112 35.3225 63.008 35.9969 62.9199C42.9986 62.0057 49.5139 58.7151 54.434 53.5882C59.4414 48.3702 62.4755 41.5766 63.0231 34.3935L63.6155 34.0531C64.4518 33.5723 64.4515 32.3656 63.6149 31.8853L63.1104 31.5956C63.0071 23.4182 59.7757 15.7443 53.9818 9.95051C48.0926 4.06125 40.2611 0.817383 31.9325 0.817383C23.6039 0.817383 15.7724 4.06138 9.88313 9.95064C3.99386 15.8399 0.75 23.6713 0.75 31.9999C0.75 39.7816 3.63289 47.2344 8.86731 52.9847ZM57.8883 34.5374L57.8298 34.5711L57.7961 34.6296L56.2276 37.3592L54.6584 34.6312L54.6248 34.5728L54.5663 34.5392L51.8381 32.97L54.5678 31.4014L54.6263 31.3678L54.66 31.3092L56.2277 28.5815L57.7945 31.3108L57.8282 31.3695L57.8869 31.4031L60.6162 32.97L57.8883 34.5374Z" fill="#14213D" stroke="#14213D" stroke-width="0.5"/>
</svg>

<svg width="65" height="64" fill="none" xmlns="http://www.w3.org/2000/svg"><path d="M31.933 60.999a.988.988 0 0 0-.99.946.948.948 0 0 0 .935.987h.106a.948.948 0 0 0 .935-.987.984.984 0 0 0-.986-.946ZM13.42 12.305a.934.934 0 0 0-.002 1.351l.024.024c.368.36.989.324 1.366-.027.377-.35.383-.91.041-1.295l-.022-.025a.95.95 0 0 0-1.358-.075l-.05.047ZM17.92 10.02a.94.94 0 0 0-1.387-.238.937.937 0 0 0-.201 1.338l.023.03a.946.946 0 0 0 1.3.207c.422-.292.562-.873.286-1.305l-.02-.033Z" fill="#14213D"/><path d="M20.332 33.217a5.09 5.09 0 0 0 5.083-5.084 5.089 5.089 0 0 0-5.083-5.084 5.09 5.09 0 0 0-5.084 5.084 5.09 5.09 0 0 0 5.084 5.084Zm0-7.734a2.653 2.653 0 0 1 2.65 2.65c0 1.461-1.19 2.65-2.65 2.65a2.653 2.653 0 0 1-2.65-2.65 2.653 2.653 0 0 1 2.65-2.65ZM37.91 39.344a1.217 1.217 0 0 0-1.72-1.72l-4.257 4.256-4.257-4.257a1.217 1.217 0 1 0-1.72 1.721l5.665 5.666a.441.441 0 0 0 .624 0l5.665-5.666ZM43.533 27.416c1.157 0 2.145.746 2.505 1.784.193.556.678 1.117 1.362 1.117.655 0 1.26-.548 1.116-1.26a5.092 5.092 0 0 0-4.983-4.074 5.092 5.092 0 0 0-4.983 4.073c-.144.713.462 1.26 1.116 1.26.684 0 1.17-.56 1.363-1.116a2.655 2.655 0 0 1 2.504-1.784Z" fill="#14213D" stroke="#14213D" stroke-width=".5"/><path d="m8.867 52.985.185-.169-.185.169a31.105 31.105 0 0 0 18.962 9.93 1.194 1.194 0 0 0 1.338-1.074 1.243 1.243 0 0 0-1.082-1.347C13.822 58.6 3.183 46.514 3.183 32c0-15.852 12.897-28.749 28.75-28.749 15.236 0 27.742 11.915 28.69 26.916l-1.012-.58-2.299-4.004a1.25 1.25 0 0 0-2.167 0l-2.3 4.002-4.004 2.3a1.25 1.25 0 0 0 0 2.168l4.002 2.302 2.302 4.002a1.25 1.25 0 0 0 2.167 0l2.3-4.004.805-.462c-1.738 12.662-11.92 22.91-24.675 24.608a1.244 1.244 0 0 0-1.082 1.346 1.194 1.194 0 0 0 1.337 1.075 31.173 31.173 0 0 0 18.437-9.332 31.16 31.16 0 0 0 8.59-19.194l.591-.34a1.25 1.25 0 0 0 0-2.169l-.505-.29c-.103-8.177-3.334-15.85-9.128-21.644-5.89-5.89-13.72-9.134-22.05-9.134-8.328 0-16.16 3.244-22.049 9.134C3.993 15.84.75 23.67.75 32a31.108 31.108 0 0 0 8.117 20.985Zm49.021-18.448-.058.034-.034.059-1.568 2.73-1.57-2.729-.033-.058-.059-.034-2.728-1.569 2.73-1.569.058-.033.034-.059 1.568-2.728 1.566 2.73.034.058.059.034 2.73 1.567-2.729 1.567Z" fill="#14213D" stroke="#14213D" stroke-width=".5"/></svg>
